X: 27680
T: Morfa'r Frenhines
R: waltz
M: 3/4
K: Gmajor
|:B2|E2 EFGA|B2 B2 B2|e2 e2 e2|d2 B2 B2|e2 B2 G2|A2 G2 F2|G2 A2 B2|F2 G2 F2|
E2 EFGA|B2 B2 B2|e2 egfe|d2 B2 B2|e2 B2 G2|A2 B2 c2|B2 EGFG|E4:|
|:g2 g2 g2|f2 f2 f2|e2 egfe|d2 B2 B2|e2 B2 G2|A2 G2 F2|G2 A2 B2|F2 G2 F2|
E2 EFGA|B2 B2 B2|e2 egfe|d2 B2 B2|e2 B2 G2|A2 B2 c2|B2 EGFG|(E4 E2):|

